src/components/00-materials/images-raw/Restaurant.svg

<svg width="96" height="96" viewBox="0 0 96 96" fill="none" xmlns="http://www.w3.org/2000/svg">
<path d="M33.38 19.0401V41.98M38 19.0401V43.37M42.3 19.0401V43.37M46.83 19.0401V41.98M46.83 42.3301C46.83 43.3301 43.27 44.07 40.1 44.07M40.1 44.07C36.93 44.07 33.38 43.2901 33.38 42.3301M40.1 44.07V81M53.57 81.03V19.0401M53.57 19V62.1L59.57 59.9701C63 59.1201 57 18.16 53.57 19Z" stroke="#00008F" stroke-width="2" stroke-linecap="round" stroke-linejoin="round"/>
</svg>

<svg width="96" height="96" viewBox="0 0 96 96" fill="none" xmlns="http://www.w3.org/2000/svg"><path d="M33.38 19.04v22.94M38 19.04v24.33m4.3-24.33v24.33m4.53-24.33v22.94m0 .35c0 1-3.56 1.74-6.73 1.74m0 0c-3.17 0-6.72-.78-6.72-1.74m6.72 1.74V81m13.47.03V19.04m0-.04v43.1l6-2.13C63 59.12 57 18.16 53.57 19z" stroke="#00008F" stroke-width="2" stroke-linecap="round" stroke-linejoin="round"/></svg>
